!!!!SEGMENT: pl-kk--kk-i-275--002_anonim--alleluia-virga-jesse-floruit.krn
!!!cenid: 17xx:2083
!!!COM: Anonim
!!!COM-rismid: pe30004985
!!!CDT:
!!!CNT:
!!!OTL: Alleluia virga Jesse floruit
!!!PDT:
!!!AGN: Sacred
!!!SMS-siglum: PL-Kk
!!!SMS-shelfmark: Kk.I.275
!!!SMS-shelfwork: 002 W
!!!SMS-variant:
!!!SMS-altvar:
!!!NIFC-rismid: 1001147320
!!!URL-scan: http://repozytorium.nifc.pl/skany/pl-kk-nut--i-275
!!!ONB-nifc: UWAGA: utwory w zbiorze: 1. Rorate caeli, 2. Alleluia virga Jesse floruit
!!!key:
**kern	**text
*Ibass	*
*I"Basso Ripieno.	*
*I'B rip	*
*clefF4	*
*k[]	*
*c:	*
*M3/2	*
=1	=1
*2\right	*
2G\	Al-
2G\	-le-
2G\	-lu-
=2	=2
2.C/	-ia
4D\	.
2E\	.
=3	=3
*	*ij
2G\	Al-
2.D\	-le-
4D\	-lu-
=4	=4
1GG/,	-ia
*	*Xij
2D\	al-
=5	=5
1A\	-le-
2AA/	-lu-
=6	=6
1.D\	-ia
=7	=7
*	*ij
2A\	al-
2A\	-le-
2A\	-lu-
=8	=8
(2.E\	-ia
*	*Xij
4F\	.
2G\)	.
=9	=9
2A\	al-
2.E\	-le-
4E\	-lu-
=10	=10
2.AA/	-ia
4BB/	.
2C,/	.
=11	=11
*	*ij
2F\	al-
2G\	-le-
2GG/	-lu-
=12	=12
2.C/	-ia
*	*Xij
4D\	.
2E\	.
!!LO:LB:g=original
=13	=13
2F\	al-
2G\	-le-
2GG/	-lu-
=14	=14
1C/,	-ia
*	*ij
2G\	al-
=15-	=15
1D\	-le-
2D\	-lu-
=16-	=16
0.GG/	-ia
*	*Xij
=17	=17
.	.
=18||	=18||
2r	.
2C/	Vir-
2C/	-ga
=19	=19
1G\	Jeſ-
2G\	-se
=20-	=20
1C/	flo-
2D\	-ru-
=21	=21
2GG,/	-it
2G\	Vir-
2G\	-go
=22	=22
2F\	De-
2F\	-um
2C/	et
=23	=23
2.G\	ho-
4G\	-mi-
2F\	-nem
=24	=24
1E\	ge-
2D\	-nu-
=25	=25
2C,/	-it
2C/	pa-
2C/	-cem
!!LO:LB:g=original
=26	=26
1BB/	De-
2C/	-us
=27	=27
2F\	red-
2G\	.
2GG/	-di-
=28	=28
2C,/	-dit
2G\	in
2G\	se-
=29	=29
2.F\	-re-
4G\	.
2A\	.
=30	=30
2G\	-con-
2.D\	-ci-
4D\	-li-
=31	=31
2GG,/	-ans
2G\	re-
2G\	-con-
=32	=32
2.F\	-ci-
4F\	-li-
2E\	-ans
=33	=33
(4D\	i-
4E\	.
4F\	.
4G\)	.
2A\	-ma
=34-	=34
2B-X\	.
2G\	sum-
!LO:SIC:v:t=custos d	!
2A\	.
!!LO:LB:g=original
=35	=35
2D,\	-mis
2D/	re-
2BB/	-con-
=36	=36
4AA/	-ci-
4BB/	.
4C/	-li-
4D/	.
2E\	-ans
=37	=37
2F\	i-
2D\	-ma
2E\	sum-
=38	=38
2AA,/	-mis
2C/	re-
2G\	-con-
=39	=39
2.F\	-ci-
4G\	-li-
2A\	-ans
=40	=40
2G\	i-
2D\	-ma
2D\	sum-
=41	=41
00GG/;	-mis.
!LO:TX:a:t=alleluja da \nCapo.	!
==	==
*-	*-
!!!EED: Leszek Kubiak
!!!EST: 2021-03-30
!!!AIN: 1 bass
!!!ENC: Berenika Jozajtis
!!!END: 2021-03-10
